SVG_Azure_All/Work Account.svg

<?xml version="1.0" encoding="UTF-8" standalone="no"?>
<!-- Generated by Microsoft Visio, SVG Export Work Account.svg Page-1 -->

<svg
   xmlns:dc="http://purl.org/dc/elements/1.1/"
   xmlns:cc="http://creativecommons.org/ns#"
   xmlns:rdf="http://www.w3.org/1999/02/22-rdf-syntax-ns#"
   xmlns:svg="http://www.w3.org/2000/svg"
   xmlns="http://www.w3.org/2000/svg"
   xmlns:xlink="http://www.w3.org/1999/xlink"
   xmlns:sodipodi="http://sodipodi.sourceforge.net/DTD/sodipodi-0.dtd"
   xmlns:inkscape="http://www.inkscape.org/namespaces/inkscape"
   width="0.78735912in"
   height="0.78746605in"
   viewBox="0 0 56.689855 56.697696"
   xml:space="preserve"
   class="st5"
   version="1.1"
   id="svg84"
   sodipodi:docname="Work Account.svg"
   style="font-size:12px;overflow:visible;color-interpolation-filters:sRGB;fill:none;fill-rule:evenodd;stroke-linecap:square;stroke-miterlimit:3"
   inkscape:version="0.92.5 (2060ec1f9f, 2020-04-08)"><metadata
   id="metadata88"><rdf:RDF><cc:Work
       rdf:about=""><dc:format>image/svg+xml</dc:format><dc:type
         rdf:resource="http://purl.org/dc/dcmitype/StillImage" /></cc:Work></rdf:RDF></metadata><sodipodi:namedview
   pagecolor="#ffffff"
   bordercolor="#666666"
   borderopacity="1"
   objecttolerance="10"
   gridtolerance="10"
   guidetolerance="10"
   inkscape:pageopacity="0"
   inkscape:pageshadow="2"
   inkscape:window-width="640"
   inkscape:window-height="480"
   id="namedview86"
   showgrid="false"
   inkscape:zoom="1.8365233"
   inkscape:cx="37.795184"
   inkscape:cy="18.900351"
   inkscape:window-x="0"
   inkscape:window-y="0"
   inkscape:window-maximized="0"
   inkscape:current-layer="svg84" />
	<style
   type="text/css"
   id="style2">
	<![CDATA[
		.st1 {fill:url(#grad0-6);stroke:none;stroke-linecap:butt;stroke-width:0.812473}
		.st2 {fill:url(#grad0-13);stroke:none;stroke-linecap:butt;stroke-width:0.812473}
		.st3 {fill:url(#grad0-17);stroke:none;stroke-linecap:butt;stroke-width:0.812473}
		.st4 {fill:url(#grad0-21);stroke:none;stroke-linecap:butt;stroke-width:0.812473}
		.st5 {fill:none;fill-rule:evenodd;font-size:12px;overflow:visible;stroke-linecap:square;stroke-miterlimit:3}
	]]>
	</style>

	<defs
   id="Patterns_And_Gradients">
		<linearGradient
   id="grad0-6"
   x1="0"
   y1="0"
   x2="1"
   y2="0"
   gradientTransform="rotate(-90.919167,0.5,0.5)">
			<stop
   offset="0"
   stop-color="#5e9624"
   stop-opacity="1"
   id="stop4" />
			<stop
   offset="0.18"
   stop-color="#629c25"
   stop-opacity="1"
   id="stop6" />
			<stop
   offset="0.44"
   stop-color="#6dae2a"
   stop-opacity="1"
   id="stop8" />
			<stop
   offset="0.73"
   stop-color="#7fcb30"
   stop-opacity="1"
   id="stop10" />
			<stop
   offset="0.82"
   stop-color="#86d633"
   stop-opacity="1"
   id="stop12" />
		</linearGradient>
		<linearGradient
   id="grad0-13"
   x1="0"
   y1="122.98352"
   x2="4.1689327"
   y2="122.98352"
   gradientTransform="scale(1.3192825,0.75798777)"
   gradientUnits="userSpaceOnUse">
			<stop
   offset="0"
   stop-color="#5e9624"
   stop-opacity="1"
   id="stop15" />
			<stop
   offset="0.18"
   stop-color="#629c25"
   stop-opacity="1"
   id="stop17" />
			<stop
   offset="0.44"
   stop-color="#6dae2a"
   stop-opacity="1"
   id="stop19" />
			<stop
   offset="0.73"
   stop-color="#7fcb30"
   stop-opacity="1"
   id="stop21" />
			<stop
   offset="0.82"
   stop-color="#86d633"
   stop-opacity="1"
   id="stop23" />
		</linearGradient>
		<linearGradient
   id="grad0-17"
   x1="0"
   y1="60.418571"
   x2="36.893292"
   y2="60.418571"
   gradientTransform="scale(1.0096686,0.99042395)"
   gradientUnits="userSpaceOnUse">
			<stop
   offset="0"
   stop-color="#5e9624"
   stop-opacity="1"
   id="stop26" />
			<stop
   offset="0.18"
   stop-color="#629c25"
   stop-opacity="1"
   id="stop28" />
			<stop
   offset="0.44"
   stop-color="#6dae2a"
   stop-opacity="1"
   id="stop30" />
			<stop
   offset="0.73"
   stop-color="#7fcb30"
   stop-opacity="1"
   id="stop32" />
			<stop
   offset="0.82"
   stop-color="#86d633"
   stop-opacity="1"
   id="stop34" />
		</linearGradient>
		<linearGradient
   id="grad0-21"
   x1="0"
   y1="173.28349"
   x2="8.1071775"
   y2="173.28349"
   gradientTransform="scale(1.8835162,0.53092191)"
   gradientUnits="userSpaceOnUse">
			<stop
   offset="0"
   stop-color="#5e9624"
   stop-opacity="1"
   id="stop37" />
			<stop
   offset="0.18"
   stop-color="#629c25"
   stop-opacity="1"
   id="stop39" />
			<stop
   offset="0.44"
   stop-color="#6dae2a"
   stop-opacity="1"
   id="stop41" />
			<stop
   offset="0.73"
   stop-color="#7fcb30"
   stop-opacity="1"
   id="stop43" />
			<stop
   offset="0.82"
   stop-color="#86d633"
   stop-opacity="1"
   id="stop45" />
		</linearGradient>
	<linearGradient
   inkscape:collect="always"
   xlink:href="#grad0-6"
   id="linearGradient4599"
   x1="0"
   y1="39.69"
   x2="56.69"
   y2="39.69"
   gradientUnits="userSpaceOnUse" /><linearGradient
   inkscape:collect="always"
   xlink:href="#grad0-6"
   id="linearGradient4601"
   x1="0"
   y1="94.34227"
   x2="2.03566"
   y2="94.34227"
   gradientUnits="userSpaceOnUse" /></defs>
	<g
   id="g82"
   transform="translate(-5.6693772,-5.6666)">
		<title
   id="title49">Page-1</title>
		<g
   id="group24-1"
   transform="translate(5.66929,-34.0157)">
			<title
   id="title51">Work Account</title>
			<g
   id="group25-2">
				<title
   id="title53">Microsoft_organization_account_</title>
				<g
   id="shape26-3">
					<title
   id="title55">path2</title>
					<path
   d="m 34.61,39.69 -7.84,5.59 -7.13,1.43 7.13,-1.43 0.71,3.67 11.91,-2.45 c 1.73,-0.4 3.46,0.82 3.87,2.55 l 9.16,44.99 c 0.2,0.81 0,1.83 -0.41,2.34 H 13.94 L 5.9,56.68 C 5.5,54.95 6.72,53.22 8.45,52.81 l 12.01,-2.44 -0.71,-3.56 -5.2,-7.12 H 0 V 96.38 H 56.69 V 39.69 Z"
   class="st1"
   id="path57"
   inkscape:connector-curvature="0"
   style="fill:url(#linearGradient4599);stroke:none;stroke-width:0.812473;stroke-linecap:butt" />
				</g>
				<g
   id="shape27-7"
   transform="translate(22.6975,-46.82)">
					<title
   id="title60">circle4</title>
					<circle
   cx="1.01783"
   cy="95.3601"
   class="st1"
   id="ellipse62"
   r="1.01783"
   style="fill:url(#linearGradient4601);stroke:none;stroke-width:0.812473;stroke-linecap:butt" />
				</g>
				<g
   id="shape28-10"
   transform="translate(20.3565,-53.5377)">
					<title
   id="title65">polygon6</title>
					<path
   d="M 5.5,93.22 H 0 l 2.75,3.16 z"
   class="st2"
   id="path67"
   inkscape:connector-curvature="0"
   style="fill:url(#grad0-13);stroke:none;stroke-width:0.812473;stroke-linecap:butt" />
				</g>
				<g
   id="shape29-14"
   transform="translate(9.66935,-6.51409)">
					<title
   id="title70">path8</title>
					<path
   d="M 31.25,59.84 0,66.15 l 6.11,30.23 5.8,-1.22 -2.85,-13.95 5.9,-1.22 5.29,4.89 2.96,-6.52 5.9,-1.22 2.75,13.84 5.39,-1.12 z m -12.42,17.5 c -3.05,0.62 -6.11,-1.32 -6.72,-4.47 -0.61,-3.06 1.43,-6.11 4.48,-6.72 3.05,-0.61 6.11,1.32 6.72,4.48 0.61,3.15 -1.43,6.1 -4.48,6.71 z"
   class="st3"
   id="path72"
   inkscape:connector-curvature="0"
   style="fill:url(#grad0-17);stroke:none;stroke-width:0.812473;stroke-linecap:butt" />
				</g>
				<g
   id="shape30-18"
   transform="translate(17.0995,-40.713)">
					<title
   id="title75">path10</title>
					<path
   d="m 0,95.67 c 0.1,0.5 0.51,0.71 0.92,0.61 l 13.74,-2.75 c 0.4,-0.1 0.61,-0.51 0.61,-0.82 v -0.1 C 15.17,92.2 14.76,92 14.45,92 l -3.25,0.71 0.2,1.02 -7.13,1.43 -0.2,-1.02 -3.26,0.71 C 0.2,94.85 0,95.26 0,95.67 Z"
   class="st4"
   id="path77"
   inkscape:connector-curvature="0"
   style="fill:url(#grad0-21);stroke:none;stroke-width:0.812473;stroke-linecap:butt" />
				</g>
			</g>
		</g>
	</g>
</svg>

<?xml version="1.0" encoding="UTF-8" standalone="no"?>
<!DOCTYPE svg PUBLIC "-//W3C//DTD SVG 1.1//EN" "http://www.w3.org/Graphics/SVG/1.1/DTD/svg11.dtd">
<!-- Generated by Microsoft Visio, SVG Export Work Account.svg Page-1 -->
<svg xmlns="http://www.w3.org/2000/svg" xmlns:xlink="http://www.w3.org/1999/xlink" xmlns:ev="http://www.w3.org/2001/xml-events"
		width="0.944882in" height="1.33858in" viewBox="0 0 68.0315 96.378" xml:space="preserve" color-interpolation-filters="sRGB"
		class="st5">
	<style type="text/css">
	<![CDATA[
		.st1 {fill:url(#grad0-6);stroke:none;stroke-linecap:butt;stroke-width:0.812473}
		.st2 {fill:url(#grad0-13);stroke:none;stroke-linecap:butt;stroke-width:0.812473}
		.st3 {fill:url(#grad0-17);stroke:none;stroke-linecap:butt;stroke-width:0.812473}
		.st4 {fill:url(#grad0-21);stroke:none;stroke-linecap:butt;stroke-width:0.812473}
		.st5 {fill:none;fill-rule:evenodd;font-size:12px;overflow:visible;stroke-linecap:square;stroke-miterlimit:3}
	]]>
	</style>

	<defs id="Patterns_And_Gradients">
		<linearGradient id="grad0-6" x1="0" y1="0" x2="1" y2="0" gradientTransform="rotate(-90.919166958533 0.5 0.5)">
			<stop offset="0" stop-color="#5e9624" stop-opacity="1"/>
			<stop offset="0.18" stop-color="#629c25" stop-opacity="1"/>
			<stop offset="0.44" stop-color="#6dae2a" stop-opacity="1"/>
			<stop offset="0.73" stop-color="#7fcb30" stop-opacity="1"/>
			<stop offset="0.82" stop-color="#86d633" stop-opacity="1"/>
		</linearGradient>
		<linearGradient id="grad0-13" x1="0" y1="0" x2="1" y2="0" gradientTransform="rotate(-90.527700271183 0.5 0.5)">
			<stop offset="0" stop-color="#5e9624" stop-opacity="1"/>
			<stop offset="0.18" stop-color="#629c25" stop-opacity="1"/>
			<stop offset="0.44" stop-color="#6dae2a" stop-opacity="1"/>
			<stop offset="0.73" stop-color="#7fcb30" stop-opacity="1"/>
			<stop offset="0.82" stop-color="#86d633" stop-opacity="1"/>
		</linearGradient>
		<linearGradient id="grad0-17" x1="0" y1="0" x2="1" y2="0" gradientTransform="rotate(-90.901590192716 0.5 0.5)">
			<stop offset="0" stop-color="#5e9624" stop-opacity="1"/>
			<stop offset="0.18" stop-color="#629c25" stop-opacity="1"/>
			<stop offset="0.44" stop-color="#6dae2a" stop-opacity="1"/>
			<stop offset="0.73" stop-color="#7fcb30" stop-opacity="1"/>
			<stop offset="0.82" stop-color="#86d633" stop-opacity="1"/>
		</linearGradient>
		<linearGradient id="grad0-21" x1="0" y1="0" x2="1" y2="0" gradientTransform="rotate(-90.263515276849 0.5 0.5)">
			<stop offset="0" stop-color="#5e9624" stop-opacity="1"/>
			<stop offset="0.18" stop-color="#629c25" stop-opacity="1"/>
			<stop offset="0.44" stop-color="#6dae2a" stop-opacity="1"/>
			<stop offset="0.73" stop-color="#7fcb30" stop-opacity="1"/>
			<stop offset="0.82" stop-color="#86d633" stop-opacity="1"/>
		</linearGradient>
	</defs>
	<g>
		<title>Page-1</title>
		<g id="group24-1" transform="translate(5.66929,-34.0157)">
			<title>Work Account</title>
			<g id="group25-2">
				<title>Microsoft_organization_account_</title>
				<g id="shape26-3">
					<title>path2</title>
					<path d="M34.61 39.69 L26.77 45.28 L19.64 46.71 L26.77 45.28 L27.48 48.95 L39.39 46.5 C41.12 46.1 42.85 47.32
								 43.26 49.05 L52.42 94.04 C52.62 94.85 52.42 95.87 52.01 96.38 L13.94 96.38 L5.9 56.68 C5.5 54.95
								 6.72 53.22 8.45 52.81 L20.46 50.37 L19.75 46.81 L14.55 39.69 L0 39.69 L0 96.38 L56.69 96.38 L56.69
								 39.69 L34.61 39.69 Z" class="st1"/>
				</g>
				<g id="shape27-7" transform="translate(22.6975,-46.82)">
					<title>circle4</title>
					<ellipse cx="1.01783" cy="95.3601" rx="1.01783" ry="1.01783" class="st1"/>
				</g>
				<g id="shape28-10" transform="translate(20.3565,-53.5377)">
					<title>polygon6</title>
					<path d="M5.5 93.22 L0 93.22 L2.75 96.38 L5.5 93.22 Z" class="st2"/>
				</g>
				<g id="shape29-14" transform="translate(9.66935,-6.51409)">
					<title>path8</title>
					<path d="M31.25 59.84 L0 66.15 L6.11 96.38 L11.91 95.16 L9.06 81.21 L14.96 79.99 L20.25 84.88 L23.21 78.36 L29.11
								 77.14 L31.86 90.98 L37.25 89.86 L31.25 59.84 ZM18.83 77.34 C15.78 77.96 12.72 76.02 12.11 72.87
								 C11.5 69.81 13.54 66.76 16.59 66.15 C19.64 65.54 22.7 67.47 23.31 70.63 C23.92 73.78 21.88 76.73
								 18.83 77.34 Z" class="st3"/>
				</g>
				<g id="shape30-18" transform="translate(17.0995,-40.713)">
					<title>path10</title>
					<path d="M0 95.67 C0.1 96.17 0.51 96.38 0.92 96.28 L14.66 93.53 C15.06 93.43 15.27 93.02 15.27 92.71 L15.27 92.61
								 C15.17 92.2 14.76 92 14.45 92 L11.2 92.71 L11.4 93.73 L4.27 95.16 L4.07 94.14 L0.81 94.85 C0.2 94.85
								 0 95.26 0 95.67 Z" class="st4"/>
				</g>
			</g>
		</g>
	</g>
</svg>
